packages/website/src/html/img/getting-started-icon.svg

<svg width="48px" height="50px" viewBox="0 0 48 50" version="1.1" xmlns="http://www.w3.org/2000/svg" xmlns:xlink="http://www.w3.org/1999/xlink" xmlns:sketch="http://www.bohemiancoding.com/sketch/ns">
    <!-- Generator: Sketch 3.4.3 (16044) - http://www.bohemiancoding.com/sketch -->
    <title>noun_113198_cc</title>
    <desc>Created with Sketch.</desc>
    <defs>
        <path d="M0.723287671,27.4025974 C0.526027397,27.6623377 0.723287671,28.0519481 1.11780822,27.8571429 C6.31232877,26.1688312 11.4410959,26.9480519 13.2164384,27.3376623 C13.6109589,27.4025974 13.7424658,27.7922078 13.6767123,28.0519481 L12.4931507,32.4675325 C12.4273973,32.7272727 12.5589041,33.1168831 12.8876712,33.1818182 C13.6109589,33.4415584 14.9260274,34.025974 16.1753425,35.0649351 C17.4246575,36.2337662 18.2136986,37.4025974 18.4767123,38.1168831 C18.6739726,38.3766234 18.9369863,38.5064935 19.2,38.3766234 L23.4739726,36.6883117 C23.8684932,36.6233766 24.1315068,36.6883117 24.3287671,37.0779221 C24.8547945,38.7012987 26.3671233,43.7662338 25.1835616,49.025974 C25.1178082,49.2857143 25.4465753,49.5454545 25.709589,49.2857143 C28.2082192,46.4935065 33.139726,40.2597403 32.7452055,31.1038961 C32.7452055,30.9090909 32.8109589,30.8441558 32.9424658,30.7142857 C45.7643836,19.6753247 47.6712329,6.88311688 47.8684932,7.10542736e-15 C41.030137,0.974025974 28.2739726,4.35064935 18.6739726,18.1818182 C18.4767123,18.2467532 18.4109589,18.3766234 18.2136986,18.3766234 C9.00821918,19.0909091 3.28767123,24.6753247 0.723287671,27.4025974 Z M34.3232877,14.9350649 C36.230137,16.6233766 36.4273973,19.6103896 34.7178082,21.5584416 C33.0082192,23.4415584 29.9835616,23.6363636 28.0109589,21.9480519 C26.1041096,20.2597403 25.9068493,17.2727273 27.6164384,15.3246753 C29.3917808,13.3766234 32.4164384,13.1818182 34.3232877,14.9350649 L34.3232877,14.9350649 Z" id="path-1"></path>
    </defs>
    <g id="Page-1" stroke="none" stroke-width="1" fill="none" fill-rule="evenodd" sketch:type="MSPage">
        <g id="noun_113198_cc" sketch:type="MSLayerGroup">
            <g>
                <path d="M5.85205479,46.8831169 C9.8630137,46.1688312 14.0054795,45 15.9123288,40.1298701 C15.9123288,40.0649351 15.8465753,39.9350649 15.7150685,39.9350649 C14.0054795,40.9090909 11.769863,41.038961 11.0465753,41.038961 C10.8493151,41.038961 10.7835616,40.974026 10.7835616,40.7792208 C10.7178082,40.0649351 10.5205479,37.8571429 11.309589,36.1038961 C11.3753425,36.038961 11.2438356,35.9090909 11.1123288,35.9090909 C6.44383562,38.3766234 5.72054795,42.5324675 5.45753425,46.5584416 C5.52328767,46.7532468 5.72054795,46.8831169 5.85205479,46.8831169 L5.85205479,46.8831169 Z" id="Shape" fill="#EB5424" sketch:type="MSShapeGroup"></path>
                <g id="Shape">
                    <use fill="#44C7F4" fill-rule="evenodd" sketch:type="MSShapeGroup" xlink:href="#path-1"></use>
                    <use fill="none" xlink:href="#path-1"></use>
                </g>
                <ellipse id="Oval-1" fill="#EB5424" sketch:type="MSShapeGroup" cx="31.1578947" cy="18.3333333" rx="5.05263158" ry="5"></ellipse>
            </g>
        </g>
    </g>
</svg>

<svg width="48" height="50" viewBox="0 0 48 50" xmlns="http://www.w3.org/2000/svg" xmlns:xlink="http://www.w3.org/1999/xlink"><title>noun_113198_cc</title><defs><path d="M.723 27.403c-.197.26 0 .649.395.454 5.194-1.688 10.323-.909 12.098-.52.395.066.526.455.46.715l-1.183 4.416c-.066.26.066.649.395.714.723.26 2.038.844 3.287 1.883 1.25 1.169 2.039 2.338 2.302 3.052.197.26.46.39.723.26l4.274-1.689c.394-.065.658 0 .855.39.526 1.623 2.038 6.688.855 11.948-.066.26.263.52.526.26 2.498-2.792 7.43-9.026 7.035-18.182 0-.195.066-.26.197-.39C45.764 19.675 47.672 6.884 47.868 0 41.03.974 28.274 4.35 18.674 18.182c-.197.065-.263.195-.46.195-9.206.714-14.926 6.298-17.49 9.026zm33.6-12.468c1.907 1.688 2.104 4.675.395 6.623-1.71 1.884-4.734 2.078-6.707.39-1.907-1.688-2.104-4.675-.395-6.623 1.776-1.948 4.8-2.143 6.707-.39z" id="a"/></defs><g fill="none" fill-rule="evenodd"><path d="M5.852 46.883c4.011-.714 8.153-1.883 10.06-6.753 0-.065-.065-.195-.197-.195-1.71.974-3.945 1.104-4.668 1.104-.198 0-.263-.065-.263-.26-.066-.714-.263-2.922.526-4.675.065-.065-.066-.195-.198-.195-4.668 2.468-5.391 6.623-5.654 10.65.065.194.263.324.394.324z" fill="#EB5424"/><use fill="#44C7F4" xlink:href="#a"/><use xlink:href="#a"/><ellipse fill="#EB5424" cx="31.158" cy="18.333" rx="5.053" ry="5"/></g></svg>
